markup/images/icon32.svg

<svg xmlns="http://www.w3.org/2000/svg" width="36" height="36"><path fill-rule="evenodd" fill="#FFF" d="M34.27 10.345C30.043 1.348 19.342-2.513 10.345 1.714c-8.997 4.228-12.858 14.93-8.63 23.928 4.214 8.972 14.9 12.872 23.925 8.632 8.997-4.228 12.857-14.93 8.63-23.929zm-1.608 1.575C29.96 23.733 14.935 30.833 4.08 25.469a1.42 1.42 0 0 0-.122-.05 15.914 15.914 0 0 1-1.784-5.971c10.675 4.007 23.348-1.989 27.03-12.709a15.918 15.918 0 0 1 3.458 5.181zm-5.195-6.677C24.481 15.614 12.062 21.494 2.13 17.157c.108-2 .599-3.991 1.472-5.873a17.976 17.976 0 0 0 18.414-8.652 16.026 16.026 0 0 1 5.451 2.611zm-7.669-3.03c-3.236 4.978-9.093 7.795-15.104 7.097 3.26-5.014 9.156-7.789 15.104-7.097zm4.946 30.153c-6.647 3.123-14.192 1.21-18.653-3.852 10.693 3.208 23.265-2.739 27.597-12.957 1.045 6.67-2.306 13.69-8.944 16.809z"/></svg>

<svg 
 xmlns="http://www.w3.org/2000/svg"
 xmlns:xlink="http://www.w3.org/1999/xlink"
 width="36px" height="36px">
<path fill-rule="evenodd"  fill="rgb(255, 255, 255)"
 d="M34.270,10.345 C30.043,1.348 19.342,-2.513 10.345,1.714 C1.348,5.942 -2.513,16.644 1.715,25.642 C5.929,34.614 16.615,38.514 25.640,34.274 C34.637,30.046 38.497,19.344 34.270,10.345 ZM32.662,11.920 C29.960,23.733 14.935,30.833 4.080,25.469 C4.040,25.450 3.999,25.434 3.958,25.419 C2.970,23.547 2.366,21.525 2.174,19.448 C12.849,23.455 25.522,17.459 29.204,6.739 C30.677,8.209 31.849,9.961 32.662,11.920 ZM27.467,5.243 C24.481,15.614 12.062,21.494 2.130,17.157 C2.238,15.157 2.729,13.166 3.602,11.284 C10.939,12.491 18.271,9.034 22.016,2.632 C23.930,3.137 25.793,4.003 27.467,5.243 ZM19.798,2.213 C16.562,7.191 10.705,10.008 4.694,9.310 C7.954,4.296 13.850,1.521 19.798,2.213 ZM24.744,32.366 C18.097,35.489 10.552,33.576 6.091,28.514 C16.784,31.722 29.356,25.775 33.688,15.557 C34.733,22.227 31.382,29.247 24.744,32.366 Z"/>
</svg>
